X:1
T:Gärdsbygubbarnas polska
O:Dalsland
R: Polska
Z: Jimmy U, 2011-07-08
M:3/4
L:1/8
K:C
E^GA2EG|ABc2BA|B2(B2B)B|cde2cB|AcB2^GB|
A2A4:|:e2ce ce|ec Bd Bd|dB cd ed|cB (3A^GA B2|
e2ce ce| ec Bd Bd|dB cd ed|BcA4:|

